X:3369
T:La Belle Catherine. HSJJ.184
T:Belle Catherine,La. HSJJ.184
T:?.. HSJJ.184
O:england
M:2/4
L:1/16
Q:100
S:HSJ Jackson,Wyresdale,Lancs.1823
R:Misc.
A:Lancashire
H:1823
K:G
d2|g4a2ga|b3g g3f|e4abag|f2-d2d4|g4a2ga|b2-g2 g2f2|
f2a2 gfed|g4z4:||:B2d2 d2c2|B2d2 d2c2|B2d2 g2b2|agfe d2c2|
B2d2 d2ef|g2bg f2af|g2ab c'bag|"hold"d'4a/g/f/e/d2:|]


